X: 1
T: Mary Ann Pierson's
M: 6/8
L: 1/8
R: jig
K: Ador
|: e2f g2f | e2f g2e | d2B G2B | d2B G2d |
e2f g2f | e2f g2e | d2B GAB | A3 A2z  :|
|: A2B cBA | d2B G2A | B2A A>BA | GAB A2z |
A2B cBA | d2B G3 | e2e d2B | A3 A2z :|
